dist/images/ok.svg

<svg width="30" height="30" viewBox="0 0 30 30" fill="none" xmlns="http://www.w3.org/2000/svg">
<path d="M12.8527 9.99062C12.8527 11.2273 13.8552 12.2299 15.0919 12.2299C16.3286 12.2299 17.3311 11.2273 17.3311 9.99062C17.3311 8.75396 16.3286 7.7514 15.0919 7.7514C13.8552 7.7514 12.8527 8.75396 12.8527 9.99062Z" fill="#CACACA"/>
<path fill-rule="evenodd" clip-rule="evenodd" d="M15 30C23.2843 30 30 23.2843 30 15C30 6.71573 23.2843 0 15 0C6.71572 0 0 6.71573 0 15C0 23.2843 6.71572 30 15 30ZM9.67501 9.99055C9.67501 6.99892 12.1002 4.57364 15.0919 4.57364C18.0836 4.57364 20.5088 6.99892 20.5088 9.99055C20.5088 12.9822 18.0836 15.4077 15.0919 15.4077C12.1002 15.4077 9.67501 12.9822 9.67501 9.99055ZM20.5412 18.194C20.4724 18.2491 19.1729 19.2761 17.0043 19.7179L20.2777 22.9622C20.8534 23.5369 20.854 24.4695 20.2793 25.0451C19.7046 25.6207 18.7722 25.6216 18.1964 25.0467L15.0184 21.952L12.1319 25.0268C11.8429 25.3266 11.4575 25.4774 11.0716 25.4774C10.7035 25.4774 10.3351 25.3404 10.0493 25.0648C9.46372 24.5001 9.44677 23.5677 10.0114 22.9822L13.1185 19.735C10.8891 19.3036 9.53591 18.2499 9.46622 18.194C8.83165 17.6851 8.72971 16.7581 9.23862 16.1235C9.74746 15.4889 10.6744 15.387 11.3091 15.8958C11.3225 15.9067 12.7378 16.9699 15.0183 16.9715C17.2989 16.9699 18.6849 15.9067 18.6983 15.8958C19.333 15.387 20.2599 15.4889 20.7688 16.1235C21.2777 16.7581 21.1757 17.6851 20.5412 18.194Z" fill="#CACACA"/>
</svg>

<svg width="30" height="30" fill="none" xmlns="http://www.w3.org/2000/svg"><path d="M12.853 9.99a2.24 2.24 0 104.478 0 2.24 2.24 0 00-4.478 0z" fill="#CACACA"/><path fill-rule="evenodd" clip-rule="evenodd" d="M15 30c8.284 0 15-6.716 15-15 0-8.284-6.716-15-15-15C6.716 0 0 6.716 0 15c0 8.284 6.716 15 15 15zM9.675 9.99a5.417 5.417 0 1110.834 0 5.417 5.417 0 01-10.834 0zm10.866 8.204c-.069.055-1.368 1.082-3.537 1.524l3.274 3.244a1.473 1.473 0 11-2.082 2.085l-3.178-3.095-2.886 3.075c-.29.3-.675.45-1.06.45a1.473 1.473 0 01-1.06-2.495l3.107-3.247c-2.23-.431-3.583-1.485-3.653-1.541a1.473 1.473 0 011.843-2.298c.014.01 1.429 1.074 3.71 1.075 2.28-.001 3.666-1.064 3.68-1.075a1.473 1.473 0 011.842 2.298z" fill="#CACACA"/></svg>
